packages/kaspersky-hexa-ui-icons/src/iconsSVGs/16/AddContactActivSolid.svg

<svg width="16" height="16" viewBox="0 0 16 16" fill="none" xmlns="http://www.w3.org/2000/svg">
<path d="M5.02319 4.06144C5.02319 2.42594 6.34903 1.1001 7.98453 1.1001C9.62004 1.1001 10.9459 2.42594 10.9459 4.06144C10.9459 5.69694 9.62004 7.02278 7.98453 7.02278C6.34903 7.02278 5.02319 5.69694 5.02319 4.06144Z" fill="black"/>
<path d="M12.6408 9.25159C12.6408 8.89261 12.3498 8.60159 11.9908 8.60159C11.6318 8.60159 11.3408 8.89261 11.3408 9.25159V10.9994H9.59312C9.23413 10.9994 8.94312 11.2904 8.94312 11.6494C8.94312 12.0084 9.23413 12.2994 9.59312 12.2994H11.3408V14.0468C11.3408 14.4057 11.6318 14.6968 11.9908 14.6968C12.3498 14.6968 12.6408 14.4057 12.6408 14.0468V12.2994H14.3883C14.7473 12.2994 15.0383 12.0084 15.0383 11.6494C15.0383 11.2904 14.7473 10.9994 14.3883 10.9994H12.6408V9.25159Z" fill="black"/>
<path d="M10.3165 8.1326C10.342 8.1326 10.3676 8.13286 10.393 8.13339C10.171 8.44998 10.0408 8.83556 10.0408 9.25157V9.69939H9.59307C8.51611 9.69939 7.64307 10.5724 7.64307 11.6494C7.64307 12.7263 8.51611 13.5994 9.59307 13.5994H10.0408V14.0467C10.0408 14.3528 10.1113 14.6424 10.2369 14.9001H4.08369C2.9515 14.9001 2.03369 13.9823 2.03369 12.8501V11.7826C2.03369 9.76676 3.66785 8.1326 5.68369 8.1326H10.3165Z" fill="black"/>
</svg>

<svg xmlns="http://www.w3.org/2000/svg" width="16" height="16" fill="none" viewBox="0 0 16 16"><path fill="#000" fill-rule="evenodd" d="M5.0232 4.0613C5.0232 2.4258 6.349 1.1 7.9845 1.1s2.9614 1.3258 2.9614 2.9613S9.62 7.0227 7.9845 7.0227 5.0232 5.6968 5.0232 4.0613m5.2933 4.0712q.0384 0 .0765.0008a1.94 1.94 0 0 0-.3522 1.1182v.4478h-.4477c-1.077 0-1.95.873-1.95 1.95s.873 1.95 1.95 1.95h.4477v.4473c0 .3061.0705.5956.1961.8534H4.0837c-1.1322 0-2.05-.9178-2.05-2.05v-1.0675c0-2.0159 1.6342-3.65 3.65-3.65zm1.6743.469a.65.65 0 0 1 .65.65v1.7478h1.7475a.65.65 0 1 1 0 1.3h-1.7475v1.7473a.65.65 0 1 1-1.3 0v-1.7473H9.5931a.65.65 0 1 1 0-1.3h1.7477V9.2515a.65.65 0 0 1 .65-.65"/></svg>
